modules/feathericon/icons/plug.svg

<?xml version="1.0" encoding="UTF-8"?>
<svg width="24px" height="24px" viewBox="0 0 24 24" version="1.1" xmlns="http://www.w3.org/2000/svg" xmlns:xlink="http://www.w3.org/1999/xlink">
    <!-- Generator: sketchtool 52.2 (67145) - http://www.bohemiancoding.com/sketch -->
    <title>plug</title>
    <desc>Created with sketchtool.</desc>
    <g id="devices" stroke="none" stroke-width="1" fill="none" fill-rule="evenodd">
        <g id="plug" fill="#000000">
            <path d="M17,11 L17,13 L20,13 C20.5522847,13 21,13.4477153 21,14 C21,14.5522847 20.5522847,15 20,15 L16.7324356,15 C16.3866262,15.5978014 15.7402824,16 15,16 L12,16 C10.1334174,16 8.56545096,14.721472 8.12406416,12.9923795 C8.08341517,12.9974095 8.0420101,13 8,13 L4,13 C3.44771525,13 3,12.5522847 3,12 C3,11.4477153 3.44771525,11 4,11 L8,11 C8.0420101,11 8.08341517,11.0025905 8.12406416,11.0076205 C8.56545096,9.27852796 10.1334174,8 12,8 L15,8 C15.7402824,8 16.3866262,8.40219863 16.7324356,9 L20,9 C20.5522847,9 21,9.44771525 21,10 C21,10.5522847 20.5522847,11 20,11 L17,11 Z" id="shape"></path>
        </g>
    </g>
</svg>

<svg width="24" height="24" viewBox="0 0 24 24" xmlns="http://www.w3.org/2000/svg"><path d="M17 11v2h3a1 1 0 0 1 0 2h-3.268A2 2 0 0 1 15 16h-3a4.002 4.002 0 0 1-3.876-3.008A1.01 1.01 0 0 1 8 13H4a1 1 0 0 1 0-2h4c.042 0 .083.003.124.008A4.002 4.002 0 0 1 12 8h3a2 2 0 0 1 1.732 1H20a1 1 0 0 1 0 2h-3z" fill="#000" fill-rule="evenodd"/></svg>
